X: 1
T: the Nut
R: jig
B: RSCDS 1-4(a)
Z: 1997 by John Chambers <jc:trillian.mit.edu>
M: 6/8
L: 1/8
K: A
| "A"A>BA Adc | cBA A2f | "D"fed "A"cBA | "Bm"cBB "E7"B2E |
| "A"A>BA Adc | cfe eag | "D"f2A "E7"GAB | "A"BAA "fine"A2 |]
G/A/ \
|: "E"B>cB Bge | "B7"^dBc "(E)"B2B |1 "E"BcB BGE | "B7"GFF FGA \
:|2 "A"c^de "B7"fed | "E"efe "E7"=dc"d.C."B |]
